Newaita-dark/apps/32/com.github.coralynnmay.goodvibesapp.svg

<svg height="32" viewBox="0 0 32 32" width="32" xmlns="http://www.w3.org/2000/svg" xmlns:xlink="http://www.w3.org/1999/xlink"><linearGradient id="a" gradientUnits="userSpaceOnUse" x1="15.87652" x2="15.87652" y1="28.033936" y2="29.35698000003"><stop offset="0" stop-opacity=".27451"/><stop offset="1" stop-opacity="0"/></linearGradient><linearGradient id="b"><stop offset="0" stop-opacity=".313726"/><stop offset=".222222" stop-opacity=".27451"/><stop offset="1" stop-opacity="0"/></linearGradient><radialGradient id="c" cx="450.908936" cy="189.579361" gradientTransform="matrix(.00000017 -.0781325 -.140638 -.0000001 52.130648 63.595333)" gradientUnits="userSpaceOnUse" r="21.166656" xlink:href="#b"/><radialGradient id="d" cx="450.908936" cy="189.579361" gradientTransform="matrix(-.00000017 .0781325 .140638 .0000001 -20.377613 -7.527479)" gradientUnits="userSpaceOnUse" r="21.166656" xlink:href="#b"/><radialGradient id="e" cx="450.908936" cy="189.579361" gradientTransform="matrix(-.00000017 -.0781325 .140638 -.0000001 -20.377613 63.595333)" gradientUnits="userSpaceOnUse" r="21.166656" xlink:href="#b"/><radialGradient id="f" cx="450.908936" cy="189.579361" gradientTransform="matrix(.00000017 .0781325 -.140638 .0000001 52.130646 -7.527479)" gradientUnits="userSpaceOnUse" r="21.166656" xlink:href="#b"/><linearGradient id="g" gradientUnits="userSpaceOnUse" x1="10.58434899997" x2="10.58434899997" y1="28.033934" y2="2.89610500006"><stop offset="0" stop-color="#29b6f6"/><stop offset="1" stop-color="#4fc3f7"/></linearGradient><linearGradient id="h" gradientUnits="userSpaceOnUse" x1="15.876524" x2="15.876524" y1="28.033934" y2="2.89610500006"><stop offset="0" stop-color="#5c6bc0"/><stop offset="1" stop-color="#7986cb"/></linearGradient><path d="m5.953125 27.9375h19.847656v1.46875h-19.847656zm0 0" fill="url(#a)"/><path d="m25.800781 28.035156h2.644531v-1.324218h-2.644531zm0 0" fill="url(#c)"/><path d="m5.953125 28.035156h-2.644531v1.320313h2.644531zm0 0" fill="url(#d)"/><path d="m5.953125 28.035156h-2.644531v-1.324218h2.644531zm0 0" fill="url(#e)"/><path d="m25.800781 28.035156h2.644531v1.320313h-2.644531zm0 0" fill="url(#f)"/><path d="m4.628906 2.894531h22.492188c.730468 0 1.324218.59375 1.324218 1.324219v22.492188c0 .730468-.59375 1.324218-1.324218 1.324218h-22.492188c-.730468 0-1.320312-.59375-1.320312-1.324218v-22.492188c0-.730469.589844-1.324219 1.320312-1.324219zm0 0" fill="url(#g)"/><path d="m4.628906 2.894531c-.730468 0-1.320312.589844-1.320312 1.324219v.164062c0-.730468.589844-1.324218 1.320312-1.320312h22.492188c.734375-.003906 1.324218.589844 1.324218 1.320312v-.164062c0-.734375-.589843-1.324219-1.324218-1.324219zm0 0" fill="#e6e6e6" fill-opacity=".392157"/><path d="m4.628906 28.035156c-.730468 0-1.320312-.589844-1.320312-1.324218v-.164063c0 .730469.589844 1.320313 1.320312 1.320313h22.492188c.734375 0 1.324218-.589844 1.324218-1.320313v.164063c0 .734374-.589843 1.324218-1.324218 1.324218zm0 0" fill-opacity=".196078"/><path d="m74.055428-168.691922h359.840637c11.686384 0 21.185477 9.499093 21.185477 21.185477v359.840637c0 11.686384-9.499093 21.185477-21.185477 21.185477h-359.840637c-11.686384 0-21.122983-9.499093-21.122983-21.185477v-359.840637c0-11.686384 9.436599-21.185477 21.122983-21.185477zm0 0" fill="none" stroke="#212121" stroke-linecap="round" stroke-width="3" transform="matrix(.062506 0 0 .062506 0 13.438783)"/><path d="m8.027344 21.117188c-2.636719-.691407-3.726563-2.6875-3.125-5.726563.730468-3.699219 3.3125-5.75 7.21875-5.730469 5.898437.023438 7.660156.140625 7.625.503906-.03125.320313-.066406.347657-.523438.398438-.664062.074219-.671875-.058594.164063 3.851562.742187 3.496094.820312 3.742188 1.074219 3.460938.332031-.359375 4.332031-7.109375 4.273437-7.207031-.035156-.058594-.308594-.105469-.605469-.105469-.558594 0-.597656-.039062-.46875-.519531.070313-.261719 3.316406-.402344 3.316406-.140625 0 .40625-.230468.660156-.59375.660156-.492187 0-.394531-.136719-3.398437 4.859375-3.765625 6.269531-3.277344 5.640625-4.335937 5.601563-.992188-.035157-.789063.53125-2.109376-5.765626-.800781-3.808593-1.667968-4.859374-4.035156-4.859374-2.683594 0-4.429687 2.527343-4.609375 6.675781-.128906 2.914062 1.503907 4.15625 4.128907 3.144531.707031-.273438.726562-.308594 1.035156-1.828125.34375-1.699219.339844-1.710937-.449219-1.710937-.613281 0-.613281 0-.539063-.355469.113282-.53125.089844-.527344 2.136719-.492188 2.230469.035157 2.039063-.28125 1.515625 2.503907-.390625 2.070312-.292968 1.96875-2.507812 2.570312-1.257813.339844-4.226563.460938-5.1875.210938zm0 0" fill="url(#h)"/><path d="m12.121094 9.714844c-3.90625-.015625-6.488282 2.035156-7.21875 5.734375-.117188.585937-.171875 1.136719-.160156 1.644531.007812-.445312.058593-.917969.160156-1.417969.730468-3.695312 3.3125-5.746093 7.21875-5.730469 5.472656.023438 7.386718.125 7.605468.429688.007813-.039062.015626-.089844.019532-.152344.035156-.363281-1.726563-.480468-7.625-.507812zm13.824218.105468c-.957031 0-2.242187.117188-2.285156.28125-.058594.207032-.082031.332032-.042968.410157.007812-.054688.023437-.113281.042968-.179688.066406-.25 3.023438-.390625 3.296875-.175781.011719-.0625.019531-.128906.019531-.199219 0-.097656-.457031-.136719-1.03125-.136719zm-1.289062 1.089844c-.5625 1.097656-3.894531 6.695313-4.195312 7.023438-.253907.277344-.332032.03125-1.074219-3.460938-.402344-1.878906-.609375-2.824218-.640625-3.308594-.039063.386719.164062 1.300782.640625 3.539063.742187 3.492187.820312 3.738281 1.074219 3.460937.332031-.359374 4.332031-7.109374 4.273437-7.207031-.007813-.015625-.039063-.03125-.078125-.046875zm-11.519531 4.964844c-.972657.003906-.976563.09375-1.066407.507812-.03125.152344-.050781.238282-.011718.289063.003906-.019531.007812-.039063.011718-.058594.113282-.535156.089844-.527343 2.136719-.496093 1.328125.019531 1.796875-.082032 1.847657.417968.058593-.757812-.347657-.625-1.847657-.648437-.449219-.007813-.796875-.011719-1.070312-.011719zm.132812 1.371094c-.019531.25-.097656.632812-.210937 1.199218-.308594 1.523438-.328125 1.558594-1.035156 1.832032-2.492188.960937-4.089844-.109375-4.136719-2.714844-.042969 2.769531 1.570312 3.933594 4.136719 2.941406.707031-.269531.726562-.304687 1.035156-1.828125.15625-.777343.242187-1.199219.210937-1.429687zm0 0" fill="#fff" fill-opacity=".392157"/><path d="m26.878906 10.40625c-.097656.167969-.273437.265625-.496094.265625-.492187 0-.394531-.140625-3.398437 4.859375-3.765625 6.269531-3.277344 5.640625-4.335937 5.601562-.992188-.035156-.785157.53125-2.109376-5.765624-.800781-3.8125-1.667968-4.859376-4.035156-4.859376-2.683594 0-4.429687 2.523438-4.609375 6.671876-.011719.191406-.011719.371093-.003906.546874 0-.027343 0-.054687.003906-.082031.179688-4.148437 1.925781-6.671875 4.609375-6.671875 2.367188 0 3.234375 1.046875 4.035156 4.859375 1.324219 6.292969 1.117188 5.730469 2.109376 5.765625 1.058593.035156.570312.667969 4.335937-5.601562 3.003906-5 2.90625-4.859375 3.398437-4.859375.363282 0 .59375-.257813.59375-.664063 0-.027344-.035156-.046875-.097656-.066406zm-7.253906.179688c-.070312.042968-.191406.0625-.402344.085937-.375.042969-.539062.019531-.460937.695313.050781-.207032.207031-.203126.460937-.230469.457032-.050781.492188-.078125.523438-.402344.007812-.054687-.03125-.105469-.121094-.148437zm4.035156.027343v.003907c-.128906.476562-.089844.519531.46875.519531.15625 0 .304688.011719.414063.03125.128906-.234375.199219-.378907.191406-.390625-.035156-.058594-.308594-.105469-.605469-.105469-.25 0-.394531-.007813-.46875-.058594zm-7.621094 6.121094c-.042968.371094-.167968.910156-.316406 1.707031-.390625 2.070313-.292968 1.972656-2.507812 2.574219-1.257813.339844-4.226563.460937-5.1875.210937-2.089844-.546874-3.207032-1.914062-3.28125-3.96875-.085938 2.3125 1.039062 3.84375 3.28125 4.429688.960937.253906 3.929687.132812 5.1875-.210938 2.214844-.601562 2.117187-.5 2.507812-2.570312.230469-1.230469.398438-1.855469.316406-2.171875zm-3.9375.019531c-.011718.042969-.019531.089844-.03125.140625-.074218.355469-.074218.355469.539063.355469.382813 0 .582031.003906.644531.199219.085938-.65625-.070312-.660157-.644531-.660157-.28125 0-.429687 0-.507813-.035156zm0 0" fill-opacity=".235294"/><path d="m128.425236 122.842738c-42.183472-11.061444-59.619307-42.995894-49.995226-91.616251 11.686384-59.181849 52.99494-91.991216 115.488972-91.678746 94.365988.374965 122.550797 2.249786 121.98835 8.061731-.499952 5.12451-1.062398 5.561968-8.3742 6.374391-10.623985 1.187386-10.748973-.937411 2.624749 61.619116 11.873867 55.932158 13.123747 59.869282 17.185859 55.369712 5.311993-5.749451 69.305882-113.739138 68.368471-115.301489-.562446-.937411-4.937028-1.687339-9.686575-1.687339-8.936646 0-9.561587-.62494-7.499283-8.311706 1.124892-4.187101 53.057433-6.436886 53.057433-2.249786 0 6.49938-3.687148 10.561492-9.499093 10.561492-7.874248 0-6.311897-2.187291-54.369808 77.742576-60.244247 100.302921-52.432493 90.241382-69.368376 89.616442-15.873484-.562446-12.623794 8.499188-33.746777-92.241192-12.811277-60.931681-26.684952-77.742576-64.556335-77.742576-42.9334 0-70.868233 40.433639-73.742958 106.802301-2.062303 46.620548 24.060202 66.493651 66.056192 50.307696 11.31142-4.374582 11.62389-4.937028 16.560918-29.247207 5.499475-27.184904 5.436981-27.372386-7.186813-27.372386-9.811563 0-9.811563 0-8.624177-5.686957 1.812327-8.499188 1.437363-8.436694 34.184236-7.874248 35.684092.562446 32.621885-4.49957 24.247684 40.058675-6.249403 33.121837-4.687052 31.496992-40.121168 41.121073-20.123079 5.436981-67.618543 7.374296-82.992075 3.374678zm0 0" fill="none" stroke="#212121" stroke-width="3" transform="matrix(.062506 0 0 .062506 0 13.438783)"/></svg>

<?xml version="1.0" encoding="UTF-8"?>
<svg xmlns="http://www.w3.org/2000/svg" xmlns:xlink="http://www.w3.org/1999/xlink" width="32px" height="32px" viewBox="0 0 32 32" version="1.1">
<defs>
<linearGradient id="linear0" gradientUnits="userSpaceOnUse" x1="254" y1="233.5" x2="254" y2="254.666672" gradientTransform="matrix(0.062506,0,0,0.062506,-0.00000381506,13.438785)">
<stop offset="0" style="stop-color:rgb(0%,0%,0%);stop-opacity:0.27451;"/>
<stop offset="1" style="stop-color:rgb(0%,0%,0%);stop-opacity:0;"/>
</linearGradient>
<radialGradient id="radial0" gradientUnits="userSpaceOnUse" cx="450.908936" cy="189.579361" fx="450.908936" fy="189.579361" r="21.166656" gradientTransform="matrix(0.00000017417,-0.0781325,-0.140638,-0.000000101539,52.130648,63.595333)">
<stop offset="0" style="stop-color:rgb(0%,0%,0%);stop-opacity:0.313726;"/>
<stop offset="0.222222" style="stop-color:rgb(0%,0%,0%);stop-opacity:0.27451;"/>
<stop offset="1" style="stop-color:rgb(0%,0%,0%);stop-opacity:0;"/>
</radialGradient>
<radialGradient id="radial1" gradientUnits="userSpaceOnUse" cx="450.908936" cy="189.579361" fx="450.908936" fy="189.579361" r="21.166656" gradientTransform="matrix(-0.00000017417,0.0781325,0.140638,0.000000101539,-20.377613,-7.527479)">
<stop offset="0" style="stop-color:rgb(0%,0%,0%);stop-opacity:0.313726;"/>
<stop offset="0.222222" style="stop-color:rgb(0%,0%,0%);stop-opacity:0.27451;"/>
<stop offset="1" style="stop-color:rgb(0%,0%,0%);stop-opacity:0;"/>
</radialGradient>
<radialGradient id="radial2" gradientUnits="userSpaceOnUse" cx="450.908936" cy="189.579361" fx="450.908936" fy="189.579361" r="21.166656" gradientTransform="matrix(-0.00000017417,-0.0781325,0.140638,-0.000000101539,-20.377613,63.595333)">
<stop offset="0" style="stop-color:rgb(0%,0%,0%);stop-opacity:0.313726;"/>
<stop offset="0.222222" style="stop-color:rgb(0%,0%,0%);stop-opacity:0.27451;"/>
<stop offset="1" style="stop-color:rgb(0%,0%,0%);stop-opacity:0;"/>
</radialGradient>
<radialGradient id="radial3" gradientUnits="userSpaceOnUse" cx="450.908936" cy="189.579361" fx="450.908936" fy="189.579361" r="21.166656" gradientTransform="matrix(0.00000017417,0.0781325,-0.140638,0.000000101539,52.130646,-7.527479)">
<stop offset="0" style="stop-color:rgb(0%,0%,0%);stop-opacity:0.313726;"/>
<stop offset="0.222222" style="stop-color:rgb(0%,0%,0%);stop-opacity:0.27451;"/>
<stop offset="1" style="stop-color:rgb(0%,0%,0%);stop-opacity:0;"/>
</radialGradient>
<linearGradient id="linear1" gradientUnits="userSpaceOnUse" x1="169.333328" y1="233.5" x2="169.333328" y2="-168.666656" gradientTransform="matrix(0.062506,0,0,0.062506,0,13.438783)">
<stop offset="0" style="stop-color:rgb(16.078432%,71.372551%,96.470588%);stop-opacity:1;"/>
<stop offset="1" style="stop-color:rgb(30.980393%,76.47059%,96.862745%);stop-opacity:1;"/>
</linearGradient>
<linearGradient id="linear2" gradientUnits="userSpaceOnUse" x1="254" y1="233.5" x2="254" y2="-168.666656" gradientTransform="matrix(0.062506,0,0,0.062506,0,13.438783)">
<stop offset="0" style="stop-color:rgb(36.078432%,41.960785%,75.294119%);stop-opacity:1;"/>
<stop offset="1" style="stop-color:rgb(47.450981%,52.549022%,79.607844%);stop-opacity:1;"/>
</linearGradient>
</defs>
<g id="surface1">
<path style=" stroke:none;fill-rule:nonzero;fill:url(#linear0);" d="M 5.953125 27.9375 L 25.800781 27.9375 L 25.800781 29.40625 L 5.953125 29.40625 Z M 5.953125 27.9375 "/>
<path style=" stroke:none;fill-rule:nonzero;fill:url(#radial0);" d="M 25.800781 28.035156 L 28.445312 28.035156 L 28.445312 26.710938 L 25.800781 26.710938 Z M 25.800781 28.035156 "/>
<path style=" stroke:none;fill-rule:nonzero;fill:url(#radial1);" d="M 5.953125 28.035156 L 3.308594 28.035156 L 3.308594 29.355469 L 5.953125 29.355469 Z M 5.953125 28.035156 "/>
<path style=" stroke:none;fill-rule:nonzero;fill:url(#radial2);" d="M 5.953125 28.035156 L 3.308594 28.035156 L 3.308594 26.710938 L 5.953125 26.710938 Z M 5.953125 28.035156 "/>
<path style=" stroke:none;fill-rule:nonzero;fill:url(#radial3);" d="M 25.800781 28.035156 L 28.445312 28.035156 L 28.445312 29.355469 L 25.800781 29.355469 Z M 25.800781 28.035156 "/>
<path style=" stroke:none;fill-rule:nonzero;fill:url(#linear1);" d="M 4.628906 2.894531 L 27.121094 2.894531 C 27.851562 2.894531 28.445312 3.488281 28.445312 4.21875 L 28.445312 26.710938 C 28.445312 27.441406 27.851562 28.035156 27.121094 28.035156 L 4.628906 28.035156 C 3.898438 28.035156 3.308594 27.441406 3.308594 26.710938 L 3.308594 4.21875 C 3.308594 3.488281 3.898438 2.894531 4.628906 2.894531 Z M 4.628906 2.894531 "/>
<path style=" stroke:none;fill-rule:nonzero;fill:rgb(90.196079%,90.196079%,90.196079%);fill-opacity:0.392157;" d="M 4.628906 2.894531 C 3.898438 2.894531 3.308594 3.484375 3.308594 4.21875 L 3.308594 4.382812 C 3.308594 3.652344 3.898438 3.058594 4.628906 3.0625 L 27.121094 3.0625 C 27.855469 3.058594 28.445312 3.652344 28.445312 4.382812 L 28.445312 4.21875 C 28.445312 3.484375 27.855469 2.894531 27.121094 2.894531 Z M 4.628906 2.894531 "/>
<path style=" stroke:none;fill-rule:nonzero;fill:rgb(0%,0%,0%);fill-opacity:0.196078;" d="M 4.628906 28.035156 C 3.898438 28.035156 3.308594 27.445312 3.308594 26.710938 L 3.308594 26.546875 C 3.308594 27.277344 3.898438 27.867188 4.628906 27.867188 L 27.121094 27.867188 C 27.855469 27.867188 28.445312 27.277344 28.445312 26.546875 L 28.445312 26.710938 C 28.445312 27.445312 27.855469 28.035156 27.121094 28.035156 Z M 4.628906 28.035156 "/>
<path style="fill:none;stroke-width:3;stroke-linecap:round;stroke-linejoin:miter;stroke:rgb(12.941177%,12.941177%,12.941177%);stroke-opacity:1;stroke-miterlimit:4;" d="M 74.055428 -168.691922 L 433.896065 -168.691922 C 445.582449 -168.691922 455.081542 -159.192829 455.081542 -147.506445 L 455.081542 212.334192 C 455.081542 224.020576 445.582449 233.519669 433.896065 233.519669 L 74.055428 233.519669 C 62.369044 233.519669 52.932445 224.020576 52.932445 212.334192 L 52.932445 -147.506445 C 52.932445 -159.192829 62.369044 -168.691922 74.055428 -168.691922 Z M 74.055428 -168.691922 " transform="matrix(0.062506,0,0,0.062506,0,13.438783)"/>
<path style=" stroke:none;fill-rule:nonzero;fill:url(#linear2);" d="M 8.027344 21.117188 C 5.390625 20.425781 4.300781 18.429688 4.902344 15.390625 C 5.632812 11.691406 8.214844 9.640625 12.121094 9.660156 C 18.019531 9.683594 19.78125 9.800781 19.746094 10.164062 C 19.714844 10.484375 19.679688 10.511719 19.222656 10.5625 C 18.558594 10.636719 18.550781 10.503906 19.386719 14.414062 C 20.128906 17.910156 20.207031 18.15625 20.460938 17.875 C 20.792969 17.515625 24.792969 10.765625 24.734375 10.667969 C 24.699219 10.609375 24.425781 10.5625 24.128906 10.5625 C 23.570312 10.5625 23.53125 10.523438 23.660156 10.042969 C 23.730469 9.78125 26.976562 9.640625 26.976562 9.902344 C 26.976562 10.308594 26.746094 10.5625 26.382812 10.5625 C 25.890625 10.5625 25.988281 10.425781 22.984375 15.421875 C 19.21875 21.691406 19.707031 21.0625 18.648438 21.023438 C 17.65625 20.988281 17.859375 21.554688 16.539062 15.257812 C 15.738281 11.449219 14.871094 10.398438 12.503906 10.398438 C 9.820312 10.398438 8.074219 12.925781 7.894531 17.074219 C 7.765625 19.988281 9.398438 21.230469 12.023438 20.21875 C 12.730469 19.945312 12.75 19.910156 13.058594 18.390625 C 13.402344 16.691406 13.398438 16.679688 12.609375 16.679688 C 11.996094 16.679688 11.996094 16.679688 12.070312 16.324219 C 12.183594 15.792969 12.160156 15.796875 14.207031 15.832031 C 16.4375 15.867188 16.246094 15.550781 15.722656 18.335938 C 15.332031 20.40625 15.429688 20.304688 13.214844 20.90625 C 11.957031 21.246094 8.988281 21.367188 8.027344 21.117188 Z M 8.027344 21.117188 "/>
<path style=" stroke:none;fill-rule:nonzero;fill:rgb(100%,100%,100%);fill-opacity:0.392157;" d="M 12.121094 9.714844 C 8.214844 9.699219 5.632812 11.75 4.902344 15.449219 C 4.785156 16.035156 4.730469 16.585938 4.742188 17.09375 C 4.75 16.648438 4.800781 16.175781 4.902344 15.675781 C 5.632812 11.980469 8.214844 9.929688 12.121094 9.945312 C 17.59375 9.96875 19.507812 10.070312 19.726562 10.375 C 19.734375 10.335938 19.742188 10.285156 19.746094 10.222656 C 19.78125 9.859375 18.019531 9.742188 12.121094 9.714844 Z M 25.945312 9.820312 C 24.988281 9.820312 23.703125 9.9375 23.660156 10.101562 C 23.601562 10.308594 23.578125 10.433594 23.617188 10.511719 C 23.625 10.457031 23.640625 10.398438 23.660156 10.332031 C 23.726562 10.082031 26.683594 9.941406 26.957031 10.15625 C 26.96875 10.09375 26.976562 10.027344 26.976562 9.957031 C 26.976562 9.859375 26.519531 9.820312 25.945312 9.820312 Z M 24.65625 10.910156 C 24.09375 12.007812 20.761719 17.605469 20.460938 17.933594 C 20.207031 18.210938 20.128906 17.964844 19.386719 14.472656 C 18.984375 12.59375 18.777344 11.648438 18.746094 11.164062 C 18.707031 11.550781 18.910156 12.464844 19.386719 14.703125 C 20.128906 18.195312 20.207031 18.441406 20.460938 18.164062 C 20.792969 17.804688 24.792969 11.054688 24.734375 10.957031 C 24.726562 10.941406 24.695312 10.925781 24.65625 10.910156 Z M 13.136719 15.875 C 12.164062 15.878906 12.160156 15.96875 12.070312 16.382812 C 12.039062 16.535156 12.019531 16.621094 12.058594 16.671875 C 12.0625 16.652344 12.066406 16.632812 12.070312 16.613281 C 12.183594 16.078125 12.160156 16.085938 14.207031 16.117188 C 15.535156 16.136719 16.003906 16.035156 16.054688 16.535156 C 16.113281 15.777344 15.707031 15.910156 14.207031 15.886719 C 13.757812 15.878906 13.410156 15.875 13.136719 15.875 Z M 13.269531 17.246094 C 13.25 17.496094 13.171875 17.878906 13.058594 18.445312 C 12.75 19.96875 12.730469 20.003906 12.023438 20.277344 C 9.53125 21.238281 7.933594 20.167969 7.886719 17.5625 C 7.84375 20.332031 9.457031 21.496094 12.023438 20.503906 C 12.730469 20.234375 12.75 20.199219 13.058594 18.675781 C 13.214844 17.898438 13.300781 17.476562 13.269531 17.246094 Z M 13.269531 17.246094 "/>
<path style=" stroke:none;fill-rule:nonzero;fill:rgb(0%,0%,0%);fill-opacity:0.235294;" d="M 26.878906 10.40625 C 26.78125 10.574219 26.605469 10.671875 26.382812 10.671875 C 25.890625 10.671875 25.988281 10.53125 22.984375 15.53125 C 19.21875 21.800781 19.707031 21.171875 18.648438 21.132812 C 17.65625 21.097656 17.863281 21.664062 16.539062 15.367188 C 15.738281 11.554688 14.871094 10.507812 12.503906 10.507812 C 9.820312 10.507812 8.074219 13.03125 7.894531 17.179688 C 7.882812 17.371094 7.882812 17.550781 7.890625 17.726562 C 7.890625 17.699219 7.890625 17.671875 7.894531 17.644531 C 8.074219 13.496094 9.820312 10.972656 12.503906 10.972656 C 14.871094 10.972656 15.738281 12.019531 16.539062 15.832031 C 17.863281 22.125 17.65625 21.5625 18.648438 21.597656 C 19.707031 21.632812 19.21875 22.265625 22.984375 15.996094 C 25.988281 10.996094 25.890625 11.136719 26.382812 11.136719 C 26.746094 11.136719 26.976562 10.878906 26.976562 10.472656 C 26.976562 10.445312 26.941406 10.425781 26.878906 10.40625 Z M 19.625 10.585938 C 19.554688 10.628906 19.433594 10.648438 19.222656 10.671875 C 18.847656 10.714844 18.683594 10.691406 18.761719 11.367188 C 18.8125 11.160156 18.96875 11.164062 19.222656 11.136719 C 19.679688 11.085938 19.714844 11.058594 19.746094 10.734375 C 19.753906 10.679688 19.714844 10.628906 19.625 10.585938 Z M 23.660156 10.613281 C 23.660156 10.613281 23.660156 10.613281 23.660156 10.617188 C 23.53125 11.09375 23.570312 11.136719 24.128906 11.136719 C 24.285156 11.136719 24.433594 11.148438 24.542969 11.167969 C 24.671875 10.933594 24.742188 10.789062 24.734375 10.777344 C 24.699219 10.71875 24.425781 10.671875 24.128906 10.671875 C 23.878906 10.671875 23.734375 10.664062 23.660156 10.613281 Z M 16.039062 16.734375 C 15.996094 17.105469 15.871094 17.644531 15.722656 18.441406 C 15.332031 20.511719 15.429688 20.414062 13.214844 21.015625 C 11.957031 21.355469 8.988281 21.476562 8.027344 21.226562 C 5.9375 20.679688 4.820312 19.3125 4.746094 17.257812 C 4.660156 19.570312 5.785156 21.101562 8.027344 21.6875 C 8.988281 21.941406 11.957031 21.820312 13.214844 21.476562 C 15.429688 20.875 15.332031 20.976562 15.722656 18.90625 C 15.953125 17.675781 16.121094 17.050781 16.039062 16.734375 Z M 12.101562 16.753906 C 12.089844 16.796875 12.082031 16.84375 12.070312 16.894531 C 11.996094 17.25 11.996094 17.25 12.609375 17.25 C 12.992188 17.25 13.191406 17.253906 13.253906 17.449219 C 13.339844 16.792969 13.183594 16.789062 12.609375 16.789062 C 12.328125 16.789062 12.179688 16.789062 12.101562 16.753906 Z M 12.101562 16.753906 "/>
<path style="fill:none;stroke-width:3;stroke-linecap:butt;stroke-linejoin:miter;stroke:rgb(12.941177%,12.941177%,12.941177%);stroke-opacity:1;stroke-miterlimit:4;" d="M 128.425236 122.842738 C 86.241764 111.781294 68.805929 79.846844 78.43001 31.226487 C 90.116394 -27.955362 131.42495 -60.764729 193.918982 -60.452259 C 288.28497 -60.077294 316.469779 -58.202473 315.907332 -52.390528 C 315.40738 -47.266018 314.844934 -46.82856 307.533132 -46.016137 C 296.909147 -44.828751 296.784159 -46.953548 310.157881 15.602979 C 322.031748 71.535137 323.281628 75.472261 327.34374 70.972691 C 332.655733 65.22324 396.649622 -42.766447 395.712211 -44.328798 C 395.149765 -45.266209 390.775183 -46.016137 386.025636 -46.016137 C 377.08899 -46.016137 376.464049 -46.641077 378.526353 -54.327843 C 379.651245 -58.514944 431.583786 -60.764729 431.583786 -56.577629 C 431.583786 -50.078249 427.896638 -46.016137 422.084693 -46.016137 C 414.210445 -46.016137 415.772796 -48.203428 367.714885 31.726439 C 307.470638 132.02936 315.282392 121.967821 298.346509 121.342881 C 282.473025 120.780435 285.722715 129.842069 264.599732 29.101689 C 251.788455 -31.829992 237.91478 -48.640887 200.043397 -48.640887 C 157.109997 -48.640887 129.175164 -8.207248 126.300439 58.161414 C 124.238136 104.781962 150.360641 124.655065 192.356631 108.46911 C 203.668051 104.094528 203.980521 103.532082 208.917549 79.221903 C 214.417024 52.036999 214.35453 51.849517 201.730736 51.849517 C 191.919173 51.849517 191.919173 51.849517 193.106559 46.16256 C 194.918886 37.663372 194.543922 37.725866 227.290795 38.288312 C 262.974887 38.850758 259.91268 33.788742 251.538479 78.346987 C 245.289076 111.468824 246.851427 109.843979 211.417311 119.46806 C 191.294232 124.905041 143.798768 126.842356 128.425236 122.842738 Z M 128.425236 122.842738 " transform="matrix(0.062506,0,0,0.062506,0,13.438783)"/>
</g>
</svg>
